X:3
T:"Bourree IV"
B:"Encyclopædia Blowzabellica", Dragonfly music, Newbiggin by the Sea, 1987
Z:abc transcription Simon Wascher
N:please mail errors to: simon.wascher@chello.at
M:2/4
L:1/8
K:G
d|cB2c|A3B/2c/2|d3/2c/2 BA|B2 G3/2B/2|
cB2c|A3B/2c/2|d3/2c/2 BA|1d3:|2G4||
|:A3/2B/2 AG|F3G|A3/2B/2 cA|B2 G2|
A3/2B/2 AG|F3G|A3/2B/2 AF|1G4:|2G3|]


